X:102
T:Kelly's Hornpipe
N:Allan's  #102  pp26
N:Trad/Anon
N:CONVERTED FROM NOTEWORTHY COMPOSER  (WWW.NOTEWORTHYSOFTWARE.COM) BY
N:ABC2NWC (HTTP://MEMBERS.AOL.COM/ABACUSMUSIC/), WITH
Z: (INTO NWC) VINCE BRENNAN 2002   (WWW.SOSYOURMOM.COM)
I:abc2nwc
M:4/4
L:1/8
K:G
(d2|g3/2)f/2g3/2(d/2 B3/2c/2)d3/2(B/2|e3/2)(d/2e3/2)(c/2 A2)A3/2(B/2|c3/2)(B/2c3/2)(A/2 F3/2)G/2A3/2(F/2|G3/2)(A/2B3/2)c/2 d2d2|
g3/2(f/2g3/2)(d/2 B3/2)(c/2d3/2)(B/2|e3/2)(d/2e3/2)c/2 A2A3/2(B/2|c3/2)(B/2c3/2)(A/2 F3/2)(G/2A3/2)(F/2|G2)B2G2:|
|:(D2|B,3/2)(D/2G3/2)(A/2 B3/2)(A/2G3/2)(F/2|E3/2)(C/2E3/2)(G/2 c3/2)(B/2A3/2)(G/2|F3/2)(D/2F3/2)(A/2 d3/2)(B/2c3/2)(A/2|B3/2)(F/2G3/2)(E/2 D2)(D2|
B,3/2)(D/2G3/2)(A/2 B3/2)(A/2G3/2)(F/2|E3/2)(C/2E3/2)(G/2 c3/2)(B/2A3/2)(G/2|F3/2)(G/2A3/2)(B/2 c3/2)(d/2e3/2)(f/2|g2)g2g2:|
